!!!COM: Music21
!!!OTL: Jota de Son
!!!OMV: pezas_jotas_jota-de-son-1_jota-de-son-partitura.musicxml
**kern
*I"Bagpipes
*I'Bag
*clefG^2
*k[]
*M3/4
=1
!LO:TX:a:t=Prestissimo
*MM220
!LO:TX:a:t=[quarter]=220
2r
4cc
=
2aa
[4gg
=
4gg]
12eeL
12ff
12eeJ
4ee
=
4aa
12eeL
12ff
12eeJ
4ee
=
4aa
8aaL
8ggJ
8aaL
8bb-XJ
=
4aa
12eeL
12ff
12eeJ
4ee
=
2aa
[4gg
=
4gg]
4dd
4ee
=
4ff
8ggL
8ffJ
8eeL
8ddJ
=
2.cc
!!linebreak:original
=
4ccc
12dddL
12ccc
12dddJ
8bbL
8aaJ
=
4gg
8eeL
8ffJ
8ggL
8aaJ
=
4ff
8ddL
8eeJ
8ffL
8ggJ
=
12aaL
12bb
12aaJ
2gg
=
4ccc
8bbL
8cccJ
8bbL
8aaJ
=
4gg
4ee
4gg
=
4gg
8ddL
8eeJ
12ffL
12ee
12ddJ
=
2cc
4cc
=
4ee
8eeL
8ddJ
8eeL
8bJ
!!linebreak:original
=
4dd
4dd
4dd
=
4ff
8ggL
8ffJ
8eeL
8ddJ
=
4.ee
8dd
4cc
=
12eeL
12ff
12eeJ
4ee
4ee
=
4gg
4dd
4gg
=
4gg
8ggL
8ffJ
8eeL
8ddJ
=
2cc
4cc
=
4ee
8ccL
8ddJ
8eeL
8ccJ
=
4dd
4b
4dd
=
4dd
8ggL
8ffJ
8eeL
8ddJ
!!linebreak:original
=
2cc
4cc
!!linebreak:original
=
4ccc
8dddL
8cccJ
8bbL
8aaJ
=
4gg
8eeL
8ffJ
8ggL
8aaJ
=
4ff
8ddL
8eeJ
8ffL
8ggJ
=
12aaL
12bb
12aaJ
2gg
=
4ccc
8bbL
8cccJ
8bbL
8aaJ
=
4gg
4ee
4gg
=
4gg
8ddL
8eeJ
12ffL
12ee
12ddJ
=
4cc
4gg
4gg
=
4gg
8eeL
8ggJ
8eeL
8ggJ
!!linebreak:original
=
4gg
8eeL
8ggJ
8eeL
8ggJ
=
4ccc
8bbL
8aaJ
12ggL
12aa
12ggJ
=
2ff
4ff
=||
4ff
8ddL
8eeJ
8ffL
8ggJ
=||
4ff
8ddL
8eeJ
8ffL
8ggJ
=||
8ffL
8eeJ
8ddL
8eeJ
8ffL
8ggJ
=
8ffL
8eeJ
8ddL
8eeJ
8ffL
8ggJ
=
4aa
8ggL
8ffJ
[4ee
!!linebreak:original
=
4ee]
8ccL
8eeJ
8ccL
8eeJ
=
4gg
8ffL
8eeJ
[4dd
!!linebreak:original
=
4dd]
8bL
8ccJ
8ddL
8eeJ
=
4ff
8eeL
8ddJ
[4cc
=
4cc]
8eeeL
8dddJ
8eeeL
8fffJ
=
4eee
8dddL
8cccJ
8dddL
8eeeJ
=
4ddd
8cccL
8bbJ
8cccL
8dddJ
=
4ccc
8bb-XL
8aaJ
8bb-L
8cccJ
=
4bb-X
8aaL
8ggJ
8aaL
8bb-J
=
[2.aa
=
4aa]
4ddd
4ddd
!!linebreak:original
=
4ddd
8cccL
8bbJ
8cccL
8dddJ
=
4ccc
4bb-X
4aa
=
4gg
8ddL
8eeJ
12ffL
12ee
12ddJ
=
4cc
8eeL
8ffJ
8eeL
8ffJ
=
8aaL
8ggJ
8eeL
8ffJ
8eeL
8ffJ
=
8aaL
8ggJ
8eeL
8ffJ
8eeL
8ffJ
=
4aa
8ggL
8ffJ
[4ff
=
4ff]
8ddL
8eeJ
8ffL
8ggJ
!!linebreak:original
=
8ffL
8eeJ
8ddL
8eeJ
8ffL
8ggJ
=
8ffL
8eeJ
8ddL
8eeJ
8ffL
8ggJ
=
4aa
8ggL
8ffJ
[4ee
=
4ee]
8ccL
8eeJ
8ccL
8eeJ
=
4gg
8ffL
8eeJ
[4dd
=
4dd]
8bL
8ccJ
8ddL
8eeJ
=
12ffL
12gg
12ffJ
8eeL
8ddJ
[4cc
=
4cc]
4cc
4cc
=
4ee
4cc
4cc
!!linebreak:original
=
4dd
4b
4dd
=
4dd
8ggL
8ffJ
8eeL
8ddJ
=
4cc
4cc
4cc
=
4ee
8eeL
8eeJ
4ee
=
4cc
4cc
4cc
=
2ff
4ee
=
2.dd
=
12ddL
12ee
12ddJ
4dd
4cc
=
4b
12ddL
12ee
12ddJ
4dd
=
2ee
4dd
=
4cc
4cc
4cc
!!linebreak:original
=
4ee
8eeL
8ddJ
4ee
!!pagebreak:original
=
4cc
4dd
4ee
=
4.ff
8gg
12eeL
12ff
12eeJ
=
2.dd
=
4dd
8ddL
8ddJ
4dd
=
4b
4cc
4dd
=
4.ee
8dd
[4cc
=
4cc]
8eeL
8ddJ
8eeL
8ffJ
=
8ggL
8ffJ
8eeL
8ddJ
4cc
=
4cc
8ccL
8ddJ
8eeL
8ffJ
=
8ggL
8ffJ
8eeL
8ddJ
4cc
!!pagebreak:original
=
4cc
8ccL
8ddJ
8eeL
8ffJ
=
8ggL
8ffJ
8ggL
8aaJ
[4gg
=
4gg]
4ccc
4bb
=
4ddd
4ccc
[4bb-X
=
4bb-]
8ggL
8aaJ
8bbnL
8cccJ
=
4ddd
4ccc
4bb-X
=
4aa
4gg
4ff
=
4.ee
8dd
[4cc
=
4cc]
4gg
4gg
!!linebreak:original
=
8aaL
8ggJ
8eeL
8ggJ
8eeL
8ggJ
!!linebreak:original
=
8aaL
8ggJ
8ddL
8ggJ
8ddL
8ggJ
=
8aaL
8ggJ
8ddL
8ggJ
8ddL
8ggJ
=
4ccc
8bbL
8aaJ
12ggL
12aa
12ggJ
=
[2.ff
=
4ff]
8ddL
8eeJ
8ffL
8ggJ
=
8ffL
8eeJ
8ddL
8eeJ
8ffL
8ggJ
=
8ffL
8eeJ
8ddL
8eeJ
8ffL
8ggJ
=
4aa
8ggL
8ffJ
[4ee
!!linebreak:original
=
4ee]
8ccL
8eeJ
8ccL
8eeJ
=
4gg
8ffL
8eeJ
[4dd
=
4dd]
8bL
8ccJ
8ddL
8eeJ
=
4ff
8eeL
8ddJ
[4cc
=
4cc]
2r
==
*-
